src/img/VAN.svg

<svg xmlns="http://www.w3.org/2000/svg" viewBox="0 0 24 16">
   <path fill="#99999A" d="M11.856 11.363l2.625-1.31c1.8.505 2.332 1.187 2.332 1.187l1.028-1.163c.058-.06.227-.27.227-.653 0-.412-.43-.73-.735-.947-.51-1.345-3.345-1.735-3.555-2.202-.068-.163-.483-1.56-.483-1.56-.247-.725-.975-.725-1.25-.725s-.866.093-.866.093c0 1.008-.138 2.237-.28 2.464 0 0-.512.267-1.113.483l-1.433-.967.377 1.304C6.31 8.694 5.72 11.01 5.72 11.01s.62 4.88 6.74 4.88c3.235 0 5.1-1.562 5.1-1.562l-1.042-2.33s-1.592.827-3.625.827c-1.875 0-2.606-.874-2.876-1.383 1.586.046 1.836-.08 1.836-.08z"/>
   <g fill="#001F5B">
      <path d="M11.76 11.106l2.693-1.35c1.825.518 2.352 1.075 2.352 1.075l.834-.938s.153-.146.153-.47c0-.3-.45-.605-.692-.776-.496-1.35-3.254-1.598-3.56-2.233-.122-.256-.277-.866-.507-1.61-.185-.538-.72-.538-.988-.538-.26 0-.595.053-.595.053 0 .55-.103 2.147-.36 2.423-.06.083-.532.272-1.042.47l.152.102-.156.155-.293.297-.323 1.007-.42-.215.15.373-.75.125.424.148-1.222.94.33.026-.436.786c.63-.286.82-.34.82-.34l-.18-.185 1.267-.513s-.096.256-.096.747c0 .07.01.174.035.297.154.767.903 2.348 3.544 2.348 1.91 0 3.386-.67 3.386-.67l.686 1.532s-1.793 1.242-4.504 1.242c-5.545 0-6.248-4.36-6.248-4.36.764-2.045 2.05-2.94 2.868-3.32l-.255-.024-.023-.077C6.64 8.82 6 11.03 6 11.03s.657 4.587 6.46 4.587c2.97 0 4.763-1.376 4.763-1.376l-.84-1.876s-1.567.736-3.49.736c-2.86 0-3.284-1.953-3.284-1.953s1.63.098 2.15-.04zm5.788-1.44zM8.302 3.654L7.79 1.946 8.95 3.46l.37-.113-.847-2.82-.41.124.5 1.673L7.414.846l-.367.112.846 2.82zM9.66 3c.023.172.126.255.294.232l.91-.124c.17-.023.253-.132.23-.304l-.096-.72-.44.058.087.615-.565.077L9.782.666l.565-.077.08.576.434-.06L10.77.42c-.024-.172-.133-.254-.304-.23l-.91.124c-.166.022-.245.13-.22.303L9.658 3zM11.766 3.054l.955.016c.17.004.267-.09.27-.263l.044-2.404c.005-.175-.092-.272-.262-.275L11.817.11c-.168-.004-.263.092-.264.264l-.046 2.404c0 .175.088.27.26.276zM11.988.49l.607.01-.04 2.19-.606-.012.038-2.188zM13.654 3.162l.92.165c.172.03.285-.047.316-.218l.47-2.633L14.925.4l-.45 2.526-.585-.103.45-2.527-.43-.078-.47 2.632c-.032.17.044.28.214.312zM17.146 3.786l.395-.836.6.284.163-.343-.6-.284.37-.776.697.33.166-.35-1.094-.52-1.262 2.658 1.105.524.165-.35zM20.55 2.8l-.975-.645-1.622 2.457.365.243.727-1.1.12.077-.34 1.358.386.252.01-.012.318-1.367.13.083c.14.09.268.063.363-.08l.593-.897c.095-.144.07-.275-.072-.37zm-.865.996l-.464-.306.515-.776.463.304-.513.778zM17.353 1.09l.003-.007-.417-.136-.97 1.884.32-2.093L15.866.6v.007l-.374 2.966.42.136zM6.384 3.854l.496-.24.32.462.393-.188v-.002L5.807 1.478l-.416.2.76 2.898.002.004.393-.19-.16-.536zM5.89 2.196L6.663 3.3l-.39.187-.38-1.29zM4.635 2.063l-.37.238.847 1.943-1.42-1.573-.372.24.005.007L5.39 5.08l.37-.24-1.12-2.77z"/>
   </g>
   <g fill="#071C2C">
      <path d="M16.93 8.776c-.46-1.32-2.988-1.414-3.56-2.245-.156-.23-.418-1.71-.68-1.912-.29-.223-1.032-.12-1.032-.12 0 .204-.05 2.02-.428 2.393-.25.216-.678.31-1.187.576l-.292.298-.323 1.007-.42-.215.15.373-.75.125.424.148-1.222.94.33.026-.436.786c.63-.286.82-.34.82-.34l-.18-.185 1.267-.513s-.096.256-.096.747c0 .07.01.174.035.297.05-.053 1.145-1.142 2.293-1.377L9.87 10.953s1.46.062 1.82-.04c1.126-.525 2.033-1.018 2.742-1.372 1.646.438 2.35 1.008 2.35 1.008l.175-.195c-.083-.062-.688-.48-1.878-.872.353-.14.782-.303.896-.303.263 0 .802.343 1.384.72l.13-.147s.03-.027.058-.084a.397.397 0 0 0 .045-.188c0-.275-.358-.456-.662-.702zM17.994 13.76a.284.284 0 1 0 .286.282.284.284 0 0 0-.286-.282zm0 .507c-.122 0-.222-.102-.222-.225s.1-.22.222-.22c.124 0 .226.097.226.22s-.102.225-.226.225z"/>
      <path d="M18.112 13.978a.096.096 0 0 0-.096-.096h-.136v.323h.062v-.133h.042l.062.133h.067l-.063-.137a.095.095 0 0 0 .062-.09zm-.095.035h-.075v-.07h.075c.02 0 .035.016.035.035 0 .017-.017.035-.035.035z"/>
   </g>
   <g fill="#99999A">
      <path d="M10.553 8.58l-.684.38 1.363.186-.68-.567zM9.67 9.654l.116-.85-1.584 1.07 1.467-.22zM11.005 7.306l-1.146.638.297.715.848-1.354z"/>
   </g>
   <g fill="#001F5B">
      <path d="M8.587 9.726l.974-.154.102-.576zM10.993 9.033l-.523-.305-.37.197zM10.13 8.426l.627-.85-.726.41z"/>
      <path d="M12.895 13.53c-3.04 0-3.804-2.084-3.804-2.867 0-.176.014-.32.027-.44l-.7.23.09.198-.544.2-.47.31.955.175-.198.682.41-.12.393 1 .47-.06.157.7s.887.614 2.385.75c1.983.175 3.756-.5 3.756-.5s-2.115.828-4.037.624c-1.468-.154-2.427-.752-2.427-.752l-.012-.634-.58.01-.272-.972-.515.24.227-.867-.99-.122.202-.604.236-.476-.317.01 1.325-.986-.576-.227.94-.183-.328-.66.58.332.23-.72c-.696.24-2.195 1.01-3.06 3.272.103.52 1.01 4.115 6.015 4.115 2.16 0 3.736-.818 4.223-1.104l-.52-1.157a9.376 9.376 0 0 1-3.268.604zM8.578 6.408l.4 1.176.71.174.284-.387z"/>
   </g>
   <g fill="#FFF">
      <path d="M12.5 6.49c-.104-.13-.228-1.446-.228-1.446s-.02 1.342-.1 1.462c-.078.12-.463.342-.463.342s.43-.14.638-.153c.154-.007.643.093.643.093s-.387-.164-.49-.297zM12.538 8.89c-2.14.127-3.136 1.966-3.19 2.07.053-.054 1.147-1.143 2.295-1.378l.895-.69zM16.93 8.776c-1.2-.134-1.525-.422-1.525-.606 0-.072.062-.092.12-.092.27 0 .63.196.835.415-.122-.313-.84-.683-1.308-.683-.088 0-.217.026-.217.17 0 .293.446.667 1.587.76.613.145 1.25.487 1.126.927a.397.397 0 0 0 .045-.188c0-.277-.358-.458-.662-.704zM15.344 9.475l.446.158a.956.956 0 0 0 .18-.09c.005-.013.005-.022-.016-.04a5.007 5.007 0 0 0-.335-.13l-.276.102zM15.72 9.335c.117.047.282.113.296.114.02.003.05.004.067 0 .015-.003.11-.054.185-.09-.07-.034-.21-.098-.302-.098-.09 0-.247.073-.247.073zM16.16 9.488c-.004.008 0 .016.015.027.017.01.247.132.264.134.02 0 .034 0 .054-.003a1.7 1.7 0 0 0 .146-.092l-.308-.167c-.08.042-.166.09-.173.1zM16.377 9.73c.008-.01.01-.02.005-.03a1.88 1.88 0 0 0-.268-.138c-.026-.005-.04-.005-.062.01a4.26 4.26 0 0 0-.18.096l.36.163c.067-.042.14-.09.145-.1zM16.817 9.858c.007 0 .03-.004.056-.014a.902.902 0 0 0 .103-.077L16.7 9.59a1.32 1.32 0 0 0-.144.1c0 .004.002.008.016.03l.245.138zM16.93 9.886c-.006.016-.01.023-.004.026.007.01.152.106.25.17l.11-.11-.253-.167a.926.926 0 0 0-.102.08zM16.773 9.933c.004-.008.002-.02-.008-.03a3.053 3.053 0 0 0-.25-.136.187.187 0 0 0-.07.006c-.01 0-.074.047-.136.092l.338.155c.057-.037.12-.08.125-.087zM16.832 9.978c-.01.004-.07.05-.12.088l.306.19.113-.126a5.01 5.01 0 0 0-.236-.158c-.01-.005-.046 0-.062.006z"/>
      <path d="M14.432 9.54c1.646.438 2.35 1.008 2.35 1.008l.175-.195c-.083-.062-.688-.48-1.878-.872.353-.14.782-.303.896-.303.263 0 .802.343 1.384.72l.13-.147c-.508-.35-1.1-.765-1.53-.765-.35 0-.85.216-1.528.556z"/>
   </g>
</svg>

<?xml version="1.0" encoding="UTF-8"?>
<svg xmlns="http://www.w3.org/2000/svg" viewBox="0 0 24 16">
   <path fill="#99999A" d="M11.856,11.363l2.625-1.311c1.799,0.506,2.331,1.188,2.331,1.188l1.028-1.163 c0.058-0.059,0.227-0.271,0.227-0.653c0-0.412-0.431-0.731-0.735-0.947c-0.51-1.345-3.345-1.735-3.555-2.202 c-0.068-0.163-0.483-1.561-0.483-1.561C13.047,3.99,12.319,3.99,12.045,3.99c-0.276,0-0.867,0.093-0.867,0.093 c0,1.008-0.138,2.237-0.281,2.464c0,0-0.511,0.267-1.112,0.483L8.352,6.063l0.377,1.304c-2.419,1.327-3.007,3.644-3.007,3.644 s0.621,4.879,6.74,4.879c3.235,0,5.101-1.562,5.101-1.562l-1.043-2.33c0,0-1.592,0.827-3.625,0.827 c-1.875,0-2.606-0.874-2.876-1.383C11.606,11.488,11.856,11.363,11.856,11.363z" />
   <path fill="#001F5B" d="M11.76,11.106l2.693-1.349c1.825,0.517,2.352,1.074,2.352,1.074l0.834-0.939c0,0,0.154-0.146,0.154-0.469 c0-0.3-0.451-0.606-0.692-0.777c-0.497-1.351-3.255-1.598-3.56-2.233c-0.123-0.256-0.278-0.866-0.508-1.61 c-0.185-0.538-0.721-0.538-0.988-0.538c-0.26,0-0.595,0.053-0.595,0.053c0,0.55-0.103,2.147-0.359,2.423 c-0.062,0.082-0.533,0.271-1.043,0.468l0.152,0.103l-0.156,0.155L9.751,7.764L9.427,8.771L9.006,8.555l0.151,0.373L8.406,9.053 l0.425,0.148l-1.223,0.939l0.33,0.026l-0.436,0.786c0.63-0.286,0.819-0.339,0.819-0.339l-0.18-0.186l1.268-0.513 c0,0-0.095,0.256-0.095,0.747c0,0.07,0.01,0.173,0.035,0.296c0.155,0.767,0.904,2.348,3.545,2.348c1.91,0,3.386-0.669,3.386-0.669 l0.686,1.531c0,0-1.793,1.242-4.504,1.242c-5.545,0-6.248-4.36-6.248-4.36c0.764-2.044,2.05-2.939,2.868-3.318L8.827,7.706 L8.804,7.629C6.641,8.822,6.001,11.03,6.001,11.03s0.656,4.587,6.46,4.587c2.968,0,4.762-1.376,4.762-1.376l-0.839-1.877 c0,0-1.568,0.736-3.49,0.736c-2.862,0-3.285-1.953-3.285-1.953S11.24,11.245,11.76,11.106z M17.548,9.666 c0.016-0.055,0.019-0.108,0.012-0.16C17.566,9.558,17.563,9.611,17.548,9.666c0.024-0.045,0.045-0.108,0.045-0.188 C17.593,9.558,17.572,9.621,17.548,9.666z" />
   <path fill="#071C2C" d="M16.931,8.776c-0.461-1.321-2.989-1.414-3.56-2.245c-0.157-0.23-0.419-1.71-0.682-1.913 c-0.289-0.223-1.031-0.121-1.031-0.121c0,0.205-0.05,2.02-0.428,2.394c-0.251,0.215-0.678,0.308-1.187,0.575L9.751,7.764 L9.427,8.771L9.006,8.555l0.151,0.373L8.406,9.053l0.425,0.148l-1.223,0.939l0.33,0.026l-0.436,0.786 c0.63-0.286,0.819-0.339,0.819-0.339l-0.18-0.186l1.268-0.513c0,0-0.095,0.256-0.095,0.747c0,0.07,0.01,0.173,0.035,0.296 c0.052-0.053,1.146-1.142,2.294-1.377L9.87,10.953c0,0,1.459,0.062,1.819-0.041c1.127-0.524,2.034-1.017,2.743-1.371 c1.646,0.437,2.35,1.007,2.35,1.007l0.175-0.195c-0.083-0.062-0.688-0.479-1.878-0.872c0.354-0.14,0.783-0.304,0.897-0.304 c0.263,0,0.802,0.343,1.384,0.72L17.49,9.75c0,0,0.031-0.027,0.058-0.084c0.016-0.055,0.019-0.108,0.012-0.16 c0.007,0.052,0.004,0.105-0.012,0.16c0.024-0.045,0.045-0.108,0.045-0.188C17.593,9.203,17.235,9.022,16.931,8.776z" />
   <g fill="#99999A">
      <path d="M10.553 8.579L9.869 8.961l1.364.185L10.553 8.579zM9.669 9.654l.117-.85L8.202 9.874 9.669 9.654zM11.005 7.306L9.859 7.944l.298.715L11.005 7.306z" />
   </g>
   <g fill="#FFF">
      <path d="M8.302 3.654L7.789 1.946 8.95 3.459 9.32 3.347 8.473.527 8.063.651 8.564 2.323 7.414.846 7.046.958 7.892 3.777zM9.659 3c.024.172.127.255.295.232l.91-.124c.171-.023.253-.132.229-.304l-.095-.721-.439.059.086.615L10.08 2.834 9.782.666l.565-.077.08.577.434-.061-.093-.683c-.024-.172-.133-.254-.304-.231l-.91.125C9.388.338 9.309.446 9.333.619L9.659 3zM11.766 3.054l.955.016c.17.004.266-.09.27-.263l.043-2.404c.005-.175-.092-.272-.262-.275L11.817.11c-.168-.004-.263.092-.264.264l-.046 2.404C11.506 2.953 11.595 3.049 11.766 3.054zM11.988.49l.607.01-.04 2.19-.606-.012L11.988.49zM13.654 3.162l.92.165c.172.031.285-.047.316-.218l.469-2.632-.433-.077-.451 2.526-.584-.103.45-2.527L13.91.218 13.441 2.85C13.408 3.021 13.484 3.131 13.654 3.162zM17.146 3.786L17.541 2.95 18.14 3.234 18.303 2.891 17.703 2.606 18.072 1.83 18.77 2.16 18.936 1.809 17.842 1.29 16.58 3.948 17.685 4.472 17.85 4.121zM20.551 2.799l-.976-.644-1.622 2.457.365.243.727-1.1.119.077L18.826 5.19l.385.252L19.22 5.43l.318-1.367.129.083c.142.089.269.063.364-.081l.592-.896C20.718 3.026 20.694 2.895 20.551 2.799zM19.685 3.796l-.464-.306.514-.776.463.304L19.685 3.796zM17.353 1.091L17.356 1.083 16.939.947 15.969 2.831 16.289.737 15.867.601 15.866.607 15.493 3.573 15.913 3.709zM6.384 3.854l.496-.24L7.2 4.076l.393-.188 0-.002L5.807 1.478 5.391 1.679l.76 2.897L6.152 4.58l.393-.19L6.384 3.854zM5.891 2.196l.771 1.104-.39.187L5.891 2.196zM4.635 2.063L4.266 2.301 5.112 4.243 3.692 2.67 3.32 2.911 3.325 2.917 5.39 5.08 5.76 4.841 4.639 2.069zM17.994 13.76c-.155 0-.283.127-.283.282 0 .157.128.285.283.285.158 0 .286-.128.286-.285C18.28 13.887 18.152 13.76 17.994 13.76zM17.994 14.267c-.122 0-.222-.102-.222-.225s.1-.221.222-.221c.124 0 .226.098.226.221S18.118 14.267 17.994 14.267z" />
      <path d="M18.112 13.978c0-.052-.042-.096-.096-.096H17.88v.323h.062v-.133h.042l.062.133h.067l-.063-.137C18.086 14.055 18.112 14.02 18.112 13.978zM18.017 14.013h-.075v-.07h.075c.019 0 .035.016.035.035C18.052 13.995 18.035 14.013 18.017 14.013zM8.587 9.726L9.561 9.572 9.662 8.996zM10.993 9.033L10.47 8.728 10.1 8.925zM10.131 8.426L10.757 7.575 10.031 7.985z" />
      <path d="M12.895 13.53c-3.039 0-3.804-2.084-3.804-2.867 0-.176.013-.32.026-.44l-.699.23.09.198L7.963 10.85l-.47.309.955.176L8.25 12.017l.409-.119.394.999.471-.06.156.7c0 0 .887.614 2.385.749 1.983.176 3.756-.499 3.756-.499s-2.116.828-4.038.624c-1.468-.155-2.427-.753-2.427-.753l-.012-.634-.58.009-.272-.971-.515.241.227-.868-.989-.122.201-.604.236-.475-.317.009L8.66 9.258 8.084 9.031l.94-.184L8.696 8.187l.58.332.229-.72c-.695.242-2.194 1.012-3.06 3.273.104.519 1.01 4.115 6.016 4.115 2.158 0 3.735-.818 4.222-1.104l-.521-1.157C15.688 13.11 14.436 13.53 12.895 13.53zM8.578 6.408L8.978 7.584 9.687 7.758 9.972 7.371zM12.5 6.491c-.104-.13-.228-1.447-.228-1.447s-.021 1.342-.101 1.462c-.077.12-.462.342-.462.342s.43-.14.639-.153c.154-.007.643.093.643.093S12.603 6.624 12.5 6.491z" />
      <path d="M12.538 8.891c-2.139.126-3.136 1.965-3.189 2.068.052-.053 1.146-1.142 2.294-1.377L12.538 8.891zM16.931 8.776c-1.2-.134-1.526-.422-1.526-.606 0-.072.062-.092.119-.092.272 0 .631.196.836.415C16.238 8.18 15.521 7.81 15.052 7.81c-.088 0-.217.026-.217.169 0 .294.446.668 1.587.762.613.144 1.249.486 1.126.926.024-.045.045-.108.045-.188C17.593 9.203 17.235 9.022 16.931 8.776zM15.344 9.475l.446.158c.081-.035.17-.078.179-.091.006-.012.006-.021-.015-.038-.013-.011-.211-.086-.335-.132L15.344 9.475zM15.719 9.335c.118.047.283.113.297.114.019.004.049.005.067 0 .015-.002.111-.053.185-.09-.071-.033-.21-.097-.302-.097C15.877 9.263 15.719 9.335 15.719 9.335zM16.159 9.488c-.003.008 0 .016.016.027.017.011.247.132.264.134.02.001.035.001.055-.002.011-.004.093-.055.146-.092l-.308-.167C16.252 9.43 16.166 9.477 16.159 9.488zM16.377 9.731c.008-.01.011-.02.005-.03-.013-.016-.243-.135-.268-.139-.026-.005-.041-.005-.062.009-.021.01-.138.072-.18.097l.359.163C16.299 9.788 16.372 9.741 16.377 9.731zM16.817 9.858c.007.001.031-.004.056-.014.012-.005.066-.046.103-.077l-.276-.177c-.066.043-.138.09-.144.1 0 .004.002.008.016.03L16.817 9.858zM16.931 9.886c-.007.016-.01.023-.005.026.007.01.152.106.251.169l.109-.109-.253-.167C16.986 9.839 16.935 9.879 16.931 9.886zM16.773 9.933c.004-.008.002-.021-.008-.031C16.751 9.89 16.53 9.77 16.514 9.767c-.018-.004-.051.001-.07.006-.009.001-.073.047-.135.092l.339.155C16.705 9.983 16.767 9.941 16.773 9.933zM16.832 9.978c-.009.004-.071.051-.12.088l.306.19.113-.126c-.092-.064-.229-.156-.237-.158C16.883 9.967 16.848 9.972 16.832 9.978z" />
      <path d="M14.432,9.541c1.646,0.437,2.35,1.007,2.35,1.007l0.175-0.195c-0.083-0.062-0.688-0.479-1.878-0.872 c0.354-0.14,0.783-0.304,0.897-0.304c0.263,0,0.802,0.343,1.384,0.72L17.49,9.75c-0.508-0.351-1.101-0.765-1.53-0.765 C15.611,8.985,15.111,9.201,14.432,9.541z" />
   </g>
</svg>
